X:0978
T:A Sky Air.
M:C
L:1/8
Q:1/4=120
I: :: :|
Z:Jack Campin * www.campin.me.uk * 2009
K:E Minor
d>dB>A B<de2 |gd e2  BA  G2 |d>dB>A B<d   e2|G2 AG/F/ B>G E2 |
d>dB>A B<de2 |g>de2  B2  A>G|A>Bg2  fe/d/ e2|GG BG/F/ B>G E2:|
e2 e>d e<ee>d|e>fg>d B>A G2 |d>dd>B d2    e2|G2 AG/F/ B>G E2 |
d2 d>B d<dd>B|d2 e2  B>A G2 |A>B g>a fe/d/ e2|G2 AG/F/ BG  E2:|

